X:1
T:Title
%%score 1 2
L:1/8
Q:1/4=115
M:4/4
K:Ab
V:1 treble nm="Grand Piano, Soprano"
V:2 bass nm="Choir Pad, Sing, Oh Sing"
V:1
 [Ac]2 [EB]2 [EA]2 E2 | [=DF]4 E4 | [EA]2 [Ae]2 [Ad]2 [Ac]2 | [GB]8 | [Gd]2 [EG]2 [Fd]2 [DF]2 | %5
w: By~L.~E.~M.,~1891 * * *|||||
 [Gd]4 E2 [EG]2 | [DB]2 [DE]2 [DG]2 [DE]2 | [CA]8 | [Fc]2 [FA]2 [=EG]2 [CF]2 | [C=E]4 C4 | %10
w: |||||
 [CF]2 [FA]2 [=EG]2 [CF]2 | [=Ec]8 | [Ae]2 [Ac]2 [EB]2 [EA]2 | [FB]4 [DF]4 | %14
w: ||||
 [DG]2 [DE]2 [DB]2 [DE]2 | [CA]8 | [Fc]2 [FA]2 [=EG]2 [CF]2 | [C=E]4 C4 | %18
w: ||||
 [CF]2 [FA]2 [=EG]2 [CF]2 | [=Ec]8 | [Ae]2 [Ac]2 [EB]2 [EA]2 | [FB]4 [DF]4 | %22
w: ||||
 [DG]2 [DE]2 [DB]2 [DE]2 | [CA]8 | C2 [CF]2 [CE]2 [CA]2 | [FB]4 [DF]4 | [DG]2 [DE]2 [DG]2 [DF]2 | %27
w: |||||
 [DE]8 | [Ac]2 [Ac]2 [Ad]2 [Ac]2 | [FB]4 [DF]4 | [DG]2 [DE]2 [DB]2 [DG]2 | [CA]8 |] %32
w: |||||
V:2
 [A,E]2 [A,D]2 [A,C]2 [A,C]2 | [A,_C]4[K:treble] [A,=C]4 | [A,C]2 [A,C]2 [A,F]2 [A,E]2 | [E,E]8 | %4
 [E,B,]2 [E,D]2 [B,,F,]2 [F,B,]2 | [E,B,]4 [E,D]2 [E,D]2 | [E,G,]2 [E,B,]2 [E,B,]2 [E,B,]2 | %7
 [A,,E,]8 | [F,A,]2 [F,C]2 [F,B,]2 [F,A,]2 | [C,G,]4 [C,C]4 | [F,A,]2 [F,C]2 [F,B,]2 [F,A,]2 | %11
 [C,G,]8 | [A,C]2 [A,E]2 [A,D]2 [A,C]2 | [D,A,]4 [D,A,]4 | [E,B,]2 [E,G,]2 [E,G,]2 [E,B,]2 | %15
 [A,,E,]8 | [F,A,]2 [F,C]2 [F,B,]2 [F,A,]2 | [C,G,]4 [C,C]4 | [F,A,]2 [F,C]2 [F,B,]2 [F,A,]2 | %19
 [C,G,]8 | [A,C]2 [A,E]2 [A,D]2 [A,C]2 | [D,A,]4 [D,A,]4 | [E,B,]2 [E,G,]2 [E,G,]2 [E,B,]2 | %23
 [A,,E,]8 | [A,,E,]2 [A,,E,]2 [A,,A,]2 [A,,E,]2 | [D,F,]4 [D,B,]4 | %26
 [E,B,]2 [E,G,]2 [E,B,]2 [E,A,]2 | [E,G,]8 | [A,E]2 [A,E]2 [A,F]2[K:bass] [A,E]2 | %29
 [D,F,]4 [D,B,]4 | [E,B,]2 [E,G,]2 [E,G,]2 [E,B,]2 | [A,,E,]8 |] %32

